X: 19
T:Morgiana in France. Car.19
M:6/8
Q:120
S:CarlisleMS,Anon.c1812.AGG's transcription
R:Jig
O:England
A:Carlisle
Z:vmp.Chris Partington
K:Bb
de|fgf fdB|cdc cAF|GAB cdc|cAF F2d/e/|!
fgf fdB|cdc cAF|Gee dcf|dBB B2||!
A/B/|cFF cFF|ecA Abc|ded fdB|{c}BAB cAF|!
cFF cFF|ecB ABc|dfb gec|dBB B2|]
